!!!OTL: Summertime
!!!MPN: Baker, Chet
!!!OAT: Baker, Chet
!!!OAL: Chet Baker Quartet Plays Standards
!!!ODL: 1955-10-24
!!!COM: Gershwin, George
!!!ODT: 1935
**kern
*ITromp
*ITrd1c2
*clefG2
*d:
*k[b-]
*M4/4
=1-
4a
8dL
8fJ
8r
4.a-
=2
2g
4f
4d
=3
8dL
8d
8c
8cJ
8dL
[8AJ
4A_
=4
4A]
4c
2r;
=5||
4r
8r
[8a
2a_
=6
4a]
8gL
8fJ
8gL
8a
8f
[8dJ
=7
4.d]
[8A
2A]
=8
2r
8r
4a
8f
=9
[1g
=10
8g]L
8fJ
8r
8d
8fL
8d
8f
[8eJ
=11
1e]
=12
2r
8r
4a
8f
=13
[1a
=14
8a]L
8gJ
8r
8f
8gL
8aJ
4f
=15
8r
4.d
2A
=16
2r
4r
8AL
[8cJ
=17
8c]L
8A
8c
8dJ
8r
8f
8r
[8a
=18
4a]
[4g
4g]
4f
=19
4.d
[8d
4d]
4r
=20
2r
8r
4.f
=21||
2.d
4f
=22
2g
4d
4f
=23
8g
4.a-
4g
8fL
[8dJ
=24
2d]
2r
=25
4r
8r
8A
8dL
8fJ
4a
=26
8r
4.dd
8ccL
8cc#
8dd
[8aJ
=27
4.a]
8g
2r
=28
1r
=29
8aL
8bJ
4dd
8ffL
8ddJ
4b
=30
2a
8gL
8f
8c#
8dJ
=31
8eL
16f
16eJ
8dL
8eJ
8fL
8a
8cc
8bJ
=32
8b-L
8f
8e
8cJ
8c#
[4.a
=33
4a]
8gL
8f#J
8fL
8BJ
[4B-
=34
4B-]
8r
8f
4e
8AL
[8dJ
=35
2d]
4d
4r
=36
2r
4r
[4d
=37||
2.d]
8r
[8d
=38
2d]
8fL
8dJ
8r
[8f
=39
2f]
8eL
8dJ
8r
[8f#
=40
2f#]
8dL
8f#J
8r
[8g
=41
2g]
4r
[4b-
=42
2.b-]
4a-
=43
4a
4e
8gL
8f
8d-
[8BJ
=44
4B]
4r
4r
8r
8A
=45
4d
8dL
8dJ
2e
=46
4.f
[8e
2e]
=47
4d
4r
8r
8A
8dL
8eJ
=48
8fL
8e
8e-
8eJ
8gL
8e
8f
8aJ
=49
2.cc
4a
=50
4b-
8aL
8gJ
4c
4d
=51
4c#
8eL
[8dJ
2d]
=52
2r
4r
4a
=53||
2.d
4r
=54
2r
8ccL
8cc#
8dd
[8ddJ
=55
4dd]
8ccL
[8aJ
2a]
=56
2r
4r
8r
[8dd
=57
2.dd]
4r
=58
8aL
[8a-J
4a-]
4dd
8r
[8a-
=59
8a-]
[4.g
4g]
8fL
[8eJ
=60
2e]
2r
=61
8dL
8fJ
4dd
8cc#L
8aJ
4r
=62
2r
8cL
8e
8g
8b-J
=63
8gL
8a
8e
8gJ
8eL
8fJ
8aL
16b-
16aJ
=64
8a-L
8a
8b-
8aJ
8ddL
8aJ
4a-
=65
4g
8dL
[8fJ
2f]
=66
2r
8r
8d
8fL
8dJ
=67
8r
8d
8fL
[8dJ
4.d]
8d
=68
8fL
8dJ
8r
8d
8fL
8dJ
4f
=69
2.d
4r
==
*-
!!!OCL: Hubert Leveille Gauvin
!!!ENC: Hubert Leveille Gauvin
!!!END: 2018-04-14
